X:21
T:Reel 21
M:4/4
K:Gmaj
L:1/8
g>e (3fed e>B (3cAA |B>d (3Bcd e2a2||g>f (3fga b>g (3fed |ee'd'b a2a2:||2 (3efg  (3fga g>e (3fed |ee'e'd' bga2| (3c'ba e'a g2 (3gag | (3ffd ed BAA2| (3efg d2 e>f (3gfg | (3efg d>B A2G2:| (3bc'd' gd' be'g2| (3efg  (3aga bgg2| (3bc'd' g2 gfg2|defg  (3aba g2| (3c'd'e'  (3d'c'b c'bc'a| (3bc'b  (3gab c'afe| (3efg  (3fgf g2ge|dBcd AcG2|
